!!!COM:	Bach, Johann Sebastian
!!!CDT:	1685/02/21/-1750/07/28/
!!!OTL@@DE:	Uns ist ein Kindlein heut geborn
!!!SCT:	BWV 414
!!!PC#:	148
!!!ONB: Related to chorale 177 (BWV 253)
!!!AGN:	chorale
**kern	**kern	**kern	**kern
*ICvox	*ICvox	*ICvox	*ICvox
*Ibass	*Itenor	*Ialto	*Isoprn
*I"Bass	*I"Tenor	*I"Alto	*I"Soprano
*>[A,A,B]	*>[A,A,B]	*>[A,A,B]	*>[A,A,B]
*>norep[A,B]	*>norep[A,B]	*>norep[A,B]	*>norep[A,B]
*>A	*>A	*>A	*>A
*clefF4	*clefGv2	*clefG2	*clefG2
*k[f#]	*k[f#]	*k[f#]	*k[f#]
*G:	*G:	*G:	*G:
*M4/4	*M4/4	*M4/4	*M4/4
*met(c)	*met(c)	*met(c)	*met(c)
*MM100	*MM100	*MM100	*MM100
4GG	4d	4g	4b
=1	=1	=1	=1
4G	4d	4g	8bL
.	.	.	8ccJ
4F#	4d	4a	4dd
4G	4d	4g	4b
4E	8dL	4g	4g
.	8cJ	.	.
=2	=2	=2	=2
4F	4c	8fL	4a
.	.	8eJ	.
4G	4G	4d	4b
4C;	4G;	4e;	4cc;
4GG	4G	[4d	4b
=3	=3	=3	=3
4D	4F#X	8dL]	4a
.	.	8cJ	.
8EL	4G	4B	4g
8DJ	.	.	.
8CL	2c	2e	4.g
8D	.	.	.
8E	.	.	.
8F#J	.	.	8a
=4	=4	=4	=4
4G	8BL	4d	4b
.	8AJ	.	.
8BBL	4G	4d	4b
8CJ	.	.	.
4D	4G	[4d	8aL
.	.	.	8gJ
4D	4F#	8dL]	4a
.	.	8cJ	.
=5	=5	=5	=5
2.GG;	2.D;	2.B;	2.g;
=:|!	=:|!	=:|!	=:|!
*>B	*>B	*>B	*>B
4GG	4d	4g	4b
=6	=6	=6	=6
4D	8dL	4f#	4a
.	8cJ	.	.
4D#	4B	4f#	4b
4E	4B	8eL	4g
.	.	8dnXJ	.
8AL	4A	4c#	4e
8GJ	.	.	.
=7	=7	=7	=7
4F#	4A	4.d	4f#
4E	4G	.	4g
.	.	8c#	.
4DnX;	4F#;	4d;	4a;
4BB	4F#	4d#	4b
=8	=8	=8	=8
8EL	4G	4B	4g
8DnX	.	.	.
8E	4c	4e	4g
8F#J	.	.	.
8GL	8BL	4dnX	4.g
8A	8c	.	.
8G	8B	8eL	.
8F#J	8AJ	8f#J	8a
=9	=9	=9	=9
8EL	4G	4g	4b
8BBJ	.	.	.
4C	2G	4d	4b
2D	.	4.d	8aL
.	.	.	8gJ
.	4F#	.	4a
.	.	8c	.
=10	=10	=10	=10
2.GG;	2.D;	2.B;	2.g;
==	==	==	==
*-	*-	*-	*-
!!!hum2abc: -Q ''
!!!title: @{PC#}. @{OTL@@DE}
!!!YOR1: 371 vierstimmige Choralges&auml;nge von Johann Sebastian Bach, 
!!!YOR2: 4th ed. by Alfred D&ouml;rffel (Leipzig: Breitkopf und H&auml;rtel, 
!!!YOR2: c.1875). 178 pp. Plate "V.A.10".  reprint: J.S. Bach, 371 Four-Part 
!!!YOR4: Chorales (New York: Associated Music Publishers, Inc., c.1940).
!!!SMS: B&H, 4th ed, Alfred D&ouml;rffel, c.1875, plate V.A.10
!!!EED:  Craig Stuart Sapp
!!!EEV:  2009/05/22
